!!!COM: Bach, Johann Sebastian
!!!OTL: Sinfonia No. 6; in E major; BWV 792
!! Three-part sinfonia
!! Bach-Gesellschaft edition, pp.26-27
!! Performance duration: 1:17; performance tempo: 143.8 quarter-notes per min.
!! (Andras Schiff, piano, "Two-Part Inventions BWV 772a-786; Three-part
!! Inventions BWV 787-801" Decca 411 974-2)
**kern	**kern	**kern
*staff2	*staff1	*staff1
*M9/8	*M9/8	*M9/8
*MM143.8	*MM143.8	*MM143.8
*E:	*E:	*E:
=1	=1	=1
2.e	L8e	2.r
.	8f#	.
.	J8g#	.
.	L8a	.
.	8b	.
.	J8cc#	.
4.d#	L8b	4.r
.	8cc#	.
.	J8a	.
=2	=2	=2
4.e	2.g#	L8b
.	.	8cc#
.	.	J8dd#
4.c#	.	L8ee
.	.	8ff#
.	.	J8gg#
4.f#	4.a#	L8ff#
.	.	8gg#
.	.	J8ee
=3	=3	=3
L8B	2.b	4.dd#
8c#	.	.
J8d#	.	.
L8e	.	2.cc#
8f#	.	.
J8g#	.	.
L8f#	[4.a	.
8g#	.	.
J8e	.	.
=4	=4	=4
L8d#	4.a]	2.b
8e	.	.
J8f#	.	.
L8e	2.g#	.
8f#	.	.
J8d#	.	.
L8c#	.	[4.a
8d#	.	.
J8e	.	.
=5	=5	=5
L8d#	2.f#	4.a]
8e	.	.
J8c#	.	.
L8B	.	2.g#
8c#	.	.
J8d#	.	.
L8c#	[4.e	.
8d#	.	.
J8B	.	.
=6	=6	=6
4.A	L8e]	2.cc#
.	8f#	.
.	J8g#	.
4.F#	L8a	.
.	8b	.
.	J8cc#	.
4.B	L8b	4.dd#
.	8cc#	.
.	J8a	.
=7	=7	=7
L8E	4.g#	2.ee
8F#	.	.
J8G#	.	.
L8A	2.f#	.
8B	.	.
J8c#	.	.
L8B	.	[4.dd#
8c#	.	.
J8A	.	.
=8	=8	=8
L8G#	2.e	4.dd#]
8A	.	.
J8B	.	.
L8A	.	2.cc#
8B	.	.
J8G#	.	.
L8F#	[4.d#	.
8G#	.	.
J8A	.	.
=9	=9	=9
4.G#	L8d#]	4.b#
.	8e	.
.	J8f#	.
4.E	L8g#	[2.cc#
.	8a	.
.	J8bn	.
4.F#	L8a	.
.	8b	.
.	J8g#	.
=10	=10	=10
2.D#	4.f#	L8cc#]
.	.	8dd#
.	.	J8ee
.	2.B#	L8ff#
.	.	8gg#
.	.	J8aa
4.G#	.	L8gg#
.	.	8aa
.	.	J8ff#
=11	=11	=11
4.C#	4.c#	L8ee
.	.	8gg#
.	.	J8dd#
4.r	4.r	L8ee
.	.	8gg#
.	.	J8b#
4.E	8r	8cc#
.	8r	[4ee
.	8g#	.
=12	=12	=12
4.F#	L8a#	4.ee]
.	8cc#	.
.	J8g#	.
4.r	L8a	4.r
.	8cc#	.
.	J8e#	.
8r	8f#	[4.ee
8r	[4a#	.
8c#	.	.
=13	=13	=13
L8d#	4.a#]	4.ee]
8f#	.	.
J8c#	.	.
L8d#	4.b	[2.dd#
8f#	.	.
J8A#	.	.
L8B	4.f#	.
8d#	.	.
J8F#	.	.
=14	=14	=14
L8G#	2.e	4.dd#]
8B	.	.
J8F#	.	.
L8G#	.	4.cc#
8B	.	.
J8D#	.	.
L8E	4.d#	[4.b
8G#	.	.
J8BB	.	.
=15	=15	=15
L8C#	[2.e	4.b]
8E	.	.
J8BB	.	.
L8C#	.	4.a#
8E	.	.
J8GG#	.	.
L8AA#	4.e_	[4.cc#
8C#	.	.
J8EE	.	.
=16	=16	=16
4.FF#	L8e]	2.cc#]
.	8f#	.
.	J8g#	.
4.E	L8a#	.
.	8b	.
.	J8cc#	.
4.r	L8b	4.r
.	8cc#	.
.	J8a#	.
=17	=17	=17
4.D#	2.b	L8bb
.	.	8aa#
.	.	J8gg#
4.E	.	L8ff#
.	.	8ee
.	.	J8dd#
4.F#	4.a#	L8ee
.	.	8cc#
.	.	J8dd#
=18	=18	=18
L8BB	4.b	4.bM
8C#	.	.
J8D#	.	.
L8E	4.r	4.r
8F#	.	.
J8G#	.	.
L8F#	4.r	4.r
8G#	.	.
J8E	.	.
=19	=19	=19
L8D#	L8B	2.r
8E	8c#	.
J8F#	J8d#	.
L8G#	L8e	.
8F#	8f#	.
J8E	J8g#	.
[4.A	L8f#	4.r
.	8g#	.
.	8e	.
=20	=20	=20
4.A]	4.d#	L8f#
.	.	8g#
.	.	J8a
4.G#	2.e#	L8b
.	.	8cc#
.	.	J8ddn
4.c#	.	L8cc#
.	.	8dd
.	.	J8b
=21	=21	=21
4.F#	2.f#	L8a
.	.	8b
.	.	J8cc#
2.B	.	L8ddn
.	.	8ee
.	.	J8ff#
.	4.g#	L8ee
.	.	8ff#
.	.	J8dd
=22	=22	=22
L8A	4.a	L8cc#
8G#	.	8dd#
J8F#	.	J8ee
L8E	4.r	L8ff#
8D#	.	8gg#
J8C#	.	J8aa
L8BB#	4.r	L8gg#
8C#	.	8aa
J8D#	.	J8ff#
=23	=23	=23
4.C#	L8cc#	[2.ee
.	8b	.
.	J8a	.
4.r	L8g#	.
.	8f#	.
.	J8e	.
4.r	L8f#	4.ee_
.	8e	.
.	J8g#	.
=24	=24	=24
4.F#	[2.a	L8ee]
.	.	8ee
.	.	J8dd#
4.r	.	L8cc#
.	.	8b
.	.	J8a
4.r	4.a_	L8b
.	.	8a
.	.	8cc#
=25	=25	=25
L8B	2.a_	[4.dd#
8A	.	.
J8G#	.	.
L8F#	.	L8dd#]
8E	.	8ee
J8D#	.	J8ff#
L8E	4.a_	L8gg#
8D#	.	8ff#
J8F#	.	J8aa
=26	=26	=26
[2.G#	L8a]	[2.b
.	8g#	.
.	J8f#	.
.	L8e	.
.	8dn	.
.	J8c#	.
4.G#_	L8d	4.b]
.	8B	.
.	J8c#	.
=27	=27	=27
4.G#]	L8c#	2.a
.	8d#	.
.	J8e	.
2.F#	L8d#	.
.	8e	.
.	J8c#	.
.	L8B	[4.g#
.	8c#	.
.	J8d#	.
=28	=28	=28
2.E	L8c#	4.g#]
.	8d#	.
.	J8B	.
.	L8A	[2.f#
.	8B	.
.	J8c#	.
4.D#	L8B	.
.	8c#	.
.	J8A	.
=29	=29	=29
L8E	2.G#	4.f#]
8D#	.	.
J8C#	.	.
L8BB	.	4.e
8AA	.	.
J8GG#	.	.
L8AA	[4.F#	[4.d#
8GG#	.	.
J8BB	.	.
=30	=30	=30
4.BBB#	L8F#]	2.d#_
.	8D#	.
.	J8E	.
4.r	L8F#	.
.	8G#	.
.	J8A	.
4.r	L8G#	4.d#_
.	8A	.
.	J8F#	.
=31	=31	=31
4.CC#	4.E	L8d#]
.	.	8c#
.	.	J8d#
4.r	[2.c#	L8e
.	.	8f#
.	.	J8g#
4.r	.	L8f#
.	.	8g#
.	.	J8e
=32	=32	=32
4.FF#	L8c#]	[2.a
.	8A	.
.	J8B	.
4.r	L8c#	.
.	8d#	.
.	J8e	.
4.r	L8d#	4.a_
.	8e	.
.	J8c#	.
=33	=33	=33
4.DD#	4.B	L8a]
.	.	8f#
.	.	J8g#
4.r	[2.f#	L8a
.	.	8b
.	.	J8cc#
4.r	.	L8b
.	.	8cc#
.	.	J8a
=34	=34	=34
4.AA;	4.f#;]	4.dd#;
4.r	4.r	4.r
4.r	4.r	4.r
=35	=35	=35
4.GG#	L8E	L8ee
.	8F#	8dd#
.	J8G#	J8cc#
4.r	L8A	L8b
.	8B	8a
.	J8c#	J8g#
4.r	L8B	L8a
.	8c#	8g#
.	J8A	J8b
=36	=36	=36
L8AA#	4.Gn	4.cc#
8C#	.	.
J8D#	.	.
L8E	4.r	4.r
8F#	.	.
J8Gn	.	.
L8F#	4.r	4.r
8G	.	.
J8E	.	.
=37	=37	=37
4.D#	8r	L8bb
.	L8F#	8aa
.	J8G#	J8gg#
4.r	L8A	L8ff#
.	8B	8ee
.	J8c#	J8dd#
4.r	L8B	L8ee
.	8c#	8dd#
.	J8A	J[8ff#
=38	=38	=38
4.E	4.G#	L16ff#]
.	.	16ee
.	.	16dd#
.	.	16cc#
.	.	J[8gg#
4.F#	4.A	L16gg#]
.	.	16ff#
.	.	16ee
.	.	16dd#
.	.	J[8aa
4.G#	4.B	L16aa]
.	.	16gg#
.	.	16ff#
.	.	16ee
.	.	J[8bb
=39	=39	=39
4.A	L8c#	L8bb]
.	8d#	8b
.	J8e	J8cc#
4.r	L8f#	L8dd#
.	8g#	8ee
.	J8a	J8ff#
4.r	L8g#	L8ee
.	8a	8ff#
.	J8f#	J8dd#
=40	=40	=40
8r	4.g#	4.ee
L8B	.	.
J8F#	.	.
L8G#	4.r	4.r
8D#	.	.
J8E	.	.
L8AA#	8c#	4f#
8BB	4d#	.
J8BBB	.	8a
=41	=41	=41
[2.EE	[2.e	[2.g#
4.EE;]	4.e;]	4.g#;]
==	==	==
*-	*-	*-
